src/images_karasa_jaga_svg/cmd/32/merge.svg

<svg height="32" viewBox="0 0 32 32" width="32" xmlns="http://www.w3.org/2000/svg" xmlns:xlink="http://www.w3.org/1999/xlink"><linearGradient id="a" gradientTransform="matrix(0 .06940294 .11152914 0 -45.287823 40.766246)" gradientUnits="userSpaceOnUse" x1="399.77466" x2="399.77466" y1="1164.6696" y2="549.06134"><stop offset="0" stop-color="#717174"/><stop offset=".5" stop-color="#9c9ca1"/><stop offset="1" stop-color="#bdbdc2"/></linearGradient><linearGradient id="b" gradientTransform="matrix(0 .57141948 .76189349 0 1.524017 42.98484)" gradientUnits="userSpaceOnUse" x1="119.57646" x2="-38.1357" y1="23.792561" y2="146.12982"><stop offset="0" stop-color="#fff"/><stop offset=".48061758" stop-color="#fff"/><stop offset=".86203563" stop-color="#e5e5e5"/><stop offset=".9244712" stop-color="#eaeaea"/><stop offset="1" stop-color="#eee"/></linearGradient><linearGradient id="c" gradientTransform="matrix(0 -1.3692663 -1.7142582 0 105.14142 195.38719)" gradientUnits="userSpaceOnUse" x1="102.31124" x2="74.330322" y1="-5.830213" y2="32"><stop offset="0" stop-color="#fff"/><stop offset="1" stop-color="#fff" stop-opacity="0"/></linearGradient><g transform="scale(.25)"><path d="m85.978516 4a38.023575 38.023575 0 0 0 -38.023438 38.023438 38.023575 38.023575 0 0 0 .070313 1.976562h-32.861329c-1.753291 0-3.164062 1.213165-3.164062 2.720703v66.558597c0 1.50754 1.410771 2.7207 3.164062 2.7207h65.671876c1.753291 0 3.164062-1.21316 3.164062-2.7207v-33.332034a38.023575 38.023575 0 0 0 1.978516.09961 38.023575 38.023575 0 0 0 38.023434-38.023438 38.023575 38.023575 0 0 0 -38.023434-38.023438z" fill="url(#a)" opacity=".75"/><g fill-rule="evenodd"><path d="m85.978516 8a34.021244 34.021244 0 0 0 -34.021485 34.021484 34.021244 34.021244 0 0 0 .539063 5.978516h-34.972656c-.844178 0-1.523438.564277-1.523438 1.265625v61.468755c0 .70134.67926 1.26562 1.523438 1.26562h60.953124c.844178 0 1.523438-.56428 1.523438-1.26562v-35.251958a34.021244 34.021244 0 0 0 5.978516.560547 34.021244 34.021244 0 0 0 34.021484-34.021485 34.021244 34.021244 0 0 0 -34.021484-34.021484z" fill="url(#b)"/><path d="m112.85938 21.193359c-18.021073 9.506515-41.002253 20.084862-60.623052 22.101563v2.716797a34.021243 34.021243 0 0 0 5.779297 15.265625c-14.288621 2.790687-30.077601 4.226086-42.015625 5.453125v37.269531c21.212867-8.542972 51.837795-21.371269 68-36v-.457031c12.976338-9.719762 25.37269-20.866355 35.64258-30.169922a34.021243 34.021243 0 0 0 -6.7832-16.179688z" fill="url(#c)"/></g></g></svg>

<?xml version="1.0" encoding="UTF-8" standalone="no"?>
<!-- Created with Inkscape (http://www.inkscape.org/) -->

<svg
   xmlns:dc="http://purl.org/dc/elements/1.1/"
   xmlns:cc="http://creativecommons.org/ns#"
   xmlns:rdf="http://www.w3.org/1999/02/22-rdf-syntax-ns#"
   xmlns:svg="http://www.w3.org/2000/svg"
   xmlns="http://www.w3.org/2000/svg"
   xmlns:xlink="http://www.w3.org/1999/xlink"
   xmlns:sodipodi="http://sodipodi.sourceforge.net/DTD/sodipodi-0.dtd"
   xmlns:inkscape="http://www.inkscape.org/namespaces/inkscape"
   version="1.1"
   id="svg2"
   width="128"
   height="128"
   viewBox="0 0 128 128"
   sodipodi:docname="merge.svg"
   inkscape:version="0.92.3 (unknown)"
   inkscape:export-filename="/home/rizmut/Dokumen/Rizmut/Github/libreoffice-style-karasa-jaga/build/images_karasa_jaga/cmd/32/merge.png"
   inkscape:export-xdpi="24"
   inkscape:export-ydpi="24">
  <metadata
     id="metadata8">
    <rdf:RDF>
      <cc:Work
         rdf:about="">
        <dc:format>image/svg+xml</dc:format>
        <dc:type
           rdf:resource="http://purl.org/dc/dcmitype/StillImage" />
        <dc:title></dc:title>
      </cc:Work>
    </rdf:RDF>
  </metadata>
  <defs
     id="defs6">
    <linearGradient
       id="linearGradient4112">
      <stop
         id="stop4114"
         offset="0"
         style="stop-color:#bbf10e;stop-opacity:1" />
      <stop
         id="stop4116"
         offset="1"
         style="stop-color:#5f9207;stop-opacity:1" />
    </linearGradient>
    <linearGradient
       id="linearGradient4105">
      <stop
         id="stop4107"
         offset="0"
         style="stop-color:#033a13;stop-opacity:1" />
      <stop
         id="stop4109"
         offset="1"
         style="stop-color:#398c37;stop-opacity:1" />
    </linearGradient>
    <linearGradient
       inkscape:collect="always"
       xlink:href="#linearGradient4373"
       id="linearGradient10248"
       gradientUnits="userSpaceOnUse"
       gradientTransform="matrix(0.17638886,0,0,0.17638871,11.288891,263.13331)"
       x1="122.70804"
       y1="2.1668341"
       x2="132"
       y2="37.94305" />
    <linearGradient
       id="linearGradient4373">
      <stop
         id="stop4375"
         style="stop-color:#717174;stop-opacity:1"
         offset="0" />
      <stop
         id="stop4377"
         style="stop-color:#9c9ca1;stop-opacity:1"
         offset="0.5" />
      <stop
         id="stop4379"
         style="stop-color:#bdbdc2;stop-opacity:1"
         offset="1" />
    </linearGradient>
    <linearGradient
       id="linearGradient2431">
      <stop
         id="stop2433"
         style="stop-color:#ffffff;stop-opacity:1"
         offset="0" />
      <stop
         id="stop2435"
         style="stop-color:#ffffff;stop-opacity:1"
         offset="0.48061758" />
      <stop
         id="stop2437"
         style="stop-color:#e5e5e5;stop-opacity:1"
         offset="0.86203563" />
      <stop
         id="stop2439"
         style="stop-color:#eaeaea;stop-opacity:1"
         offset="0.9244712" />
      <stop
         id="stop2441"
         style="stop-color:#eeeeee;stop-opacity:1"
         offset="1" />
    </linearGradient>
    <linearGradient
       id="linearGradient3310">
      <stop
         id="stop3312"
         style="stop-color:#ffffff;stop-opacity:1"
         offset="0" />
      <stop
         id="stop3314"
         style="stop-color:#ffffff;stop-opacity:0"
         offset="1" />
    </linearGradient>
    <linearGradient
       id="linearGradient7422-6">
      <stop
         style="stop-color:#b4b4b6;stop-opacity:1;"
         offset="0"
         id="stop7424-3" />
      <stop
         id="stop5367"
         offset="0.5"
         style="stop-color:#9c9ca1;stop-opacity:1;" />
      <stop
         id="stop7426-2"
         offset="1"
         style="stop-color:#cdcdd1;stop-opacity:1;" />
    </linearGradient>
    <linearGradient
       x1="399.77466"
       y1="1164.6696"
       x2="399.77466"
       y2="549.06134"
       id="linearGradient5501-5"
       xlink:href="#linearGradient4373"
       gradientUnits="userSpaceOnUse"
       gradientTransform="matrix(0,0.06940294,0.11152914,0,-45.287823,40.766246)" />
    <linearGradient
       x1="119.57646"
       y1="23.792561"
       x2="-38.1357"
       y2="146.12982"
       id="linearGradient5503-3"
       xlink:href="#linearGradient2431"
       gradientUnits="userSpaceOnUse"
       gradientTransform="matrix(0,0.57141948,0.76189349,0,1.5240172,42.98484)" />
    <linearGradient
       x1="102.31124"
       y1="-5.8302126"
       x2="74.330322"
       y2="32"
       id="linearGradient5505-2"
       xlink:href="#linearGradient3310"
       gradientUnits="userSpaceOnUse"
       gradientTransform="matrix(0,-1.3692663,-1.7142582,0,105.14142,195.38719)" />
  </defs>
  <sodipodi:namedview
     pagecolor="#ffffff"
     bordercolor="#666666"
     borderopacity="1"
     objecttolerance="10"
     gridtolerance="10"
     guidetolerance="10"
     inkscape:pageopacity="0"
     inkscape:pageshadow="2"
     inkscape:window-width="1366"
     inkscape:window-height="706"
     id="namedview4"
     showgrid="true"
     inkscape:snap-page="true"
     inkscape:zoom="0.61112259"
     inkscape:cx="394.33844"
     inkscape:cy="-139.57278"
     inkscape:window-x="0"
     inkscape:window-y="0"
     inkscape:window-maximized="1"
     inkscape:current-layer="svg2"
     inkscape:snap-global="true">
    <inkscape:grid
       type="xygrid"
       id="grid977"
       spacingx="4"
       spacingy="4"
       empspacing="1" />
  </sodipodi:namedview>
  <path
     style="opacity:0.75;fill:url(#linearGradient5501-5);fill-opacity:1;fill-rule:nonzero;stroke:none;stroke-width:13.71407127;stroke-linecap:round;stroke-linejoin:round;stroke-miterlimit:4;stroke-dasharray:none;stroke-dashoffset:4;stroke-opacity:1"
     d="M 85.978516 4 A 38.023575 38.023575 0 0 0 47.955078 42.023438 A 38.023575 38.023575 0 0 0 48.025391 44 L 15.164062 44 C 13.410771 44 12 45.213165 12 46.720703 L 12 113.2793 C 12 114.78684 13.410771 116 15.164062 116 L 80.835938 116 C 82.589229 116 84 114.78684 84 113.2793 L 84 79.947266 A 38.023575 38.023575 0 0 0 85.978516 80.046875 A 38.023575 38.023575 0 0 0 124.00195 42.023438 A 38.023575 38.023575 0 0 0 85.978516 4 z "
     id="rect5489" />
  <path
     style="fill:url(#linearGradient5503-3);fill-opacity:1;fill-rule:evenodd;stroke:none;stroke-width:54.8562851;stroke-linecap:round;stroke-linejoin:round;stroke-miterlimit:4;stroke-dasharray:none;stroke-opacity:1"
     d="M 85.978516 8 A 34.021244 34.021244 0 0 0 51.957031 42.021484 A 34.021244 34.021244 0 0 0 52.496094 48 L 17.523438 48 C 16.67926 48 16 48.564277 16 49.265625 L 16 110.73438 C 16 111.43572 16.67926 112 17.523438 112 L 78.476562 112 C 79.32074 112 80 111.43572 80 110.73438 L 80 75.482422 A 34.021244 34.021244 0 0 0 85.978516 76.042969 A 34.021244 34.021244 0 0 0 120 42.021484 A 34.021244 34.021244 0 0 0 85.978516 8 z "
     id="rect5491" />
  <path
     style="fill:url(#linearGradient5505-2);fill-opacity:1;fill-rule:evenodd;stroke:none;stroke-width:6.85703564px;stroke-linecap:butt;stroke-linejoin:miter;stroke-opacity:1"
     d="M 112.85938 21.193359 C 94.838307 30.699874 71.857127 41.278221 52.236328 43.294922 L 52.236328 46.011719 A 34.021243 34.021243 0 0 0 58.015625 61.277344 C 43.727004 64.068031 27.938024 65.50343 16 66.730469 L 16 104 C 37.212867 95.457028 67.837795 82.628731 84 68 L 84 67.542969 C 96.976338 57.823207 109.37269 46.676614 119.64258 37.373047 A 34.021243 34.021243 0 0 0 112.85938 21.193359 z "
     id="path5493" />
</svg>
